X:1
T:Title
%%score [ ( 1 2 ) ( 3 4 ) ] { ( 5 6 ) | ( 7 8 ) }
L:1/8
Q:1/4=120
M:4/4
K:Bb
V:1 treble nm="Midi_74"
V:2 treble 
V:3 bass nm="Midi_74"
V:4 bass 
V:5 treble nm="Org."
V:6 treble 
V:7 bass 
V:8 bass 
V:1
 B8 | e4 =e4 | f8 || (B6 A2) |{A} G4 F4 | F4 E4 | D8 || F8 | B4 =B4 | c8 || (F6 E2) | %11
{E} D4"^William Henry Havergal\n(1793-1870)" B4 | d4 c4 | B8 |] %14
V:2
 F8 | (G2 A2) B4 | A8 || F8 | E4 B,4 | B,4 A,4 | B,8 || C8 | (D2 E2) F4 | E8 || C8 | (B,2 D2) =E4 | %12
 F4 (F2 _E2) | D8 |] %14
V:3
 D8 | (E2 D2) C4 | C8 || B,8 | B,4 (B,2 F,2) | G,4 F,4 | F,8 || A,8 | (B,2 C2) D4 | C8 || %10
 (C6 F,2) | F,4 G,4 | B,4 A,4 | B,8 |] %14
V:4
 (B,6 _A,2) | G,4 C4 | F,8 || D,8 | E,4 D,4 | C,4 F,4 | B,,8 || (F,6 E,2) | D,4 G,4 | C,8 || A,,8 | %11
 B,,4 G,4 | F,4 F,,4 | B,,8 |] %14
V:5
 B8 | e4 =e4 | f8 || B6 A2 |{A} G4 F4 | F4 E4 | D8 || F8 | B4 =B4 | c8 || F6 E2 |{E} D4 B4 | %12
 d4 [Ac]4 | B8 |] %14
V:6
 [DF]8 | [GB]4 [GB]4 | [FA]8 || F8 | [B,E]4 B,4- | B,4 A,4 | B,8 || A,8 | [B,F]4 [DF]4 | [CE]8 || %10
 C8 | B,4 [=EG]4 | [FB]4 F2 _E2 | D8 |] %14
V:7
 x8 | x8 | x8 || x8 | x4 B,2 F,2 | G,4 x4 | x8 || x8 | x8 | x8 || x8 | x8 | x8 | x8 |] %14
V:8
 B,6 _A,2 | G,4 C4 | [F,C]8 || [D,B,]8 | E,4 D,4 | C,4 F,4 | [B,,F,]8 || F,6 E,2 | D,4 G,4 | C,8 || %10
 A,,8 | B,,4 G,4 | F,4 F,,4 | B,,8 |] %14

